!!!!SEGMENT: Lsa2001-Alma_redemptoris_mater.krn
!!!id: Lsa2001
!!!AGN: Motet
!!!SCT: Lowinsky (1968)
!!!voices: 5
!!!COM: Le Santier
!!!OTL: Alma redemptoris mater
**kern	**kern	**kern	**kern	**kern
*part5	*part4	*part3	*part2	*part1
*staff5	*staff4	*staff3	*staff2	*staff1
*I"Bassus	*I"Tenor	*I"Altus	*I"Superius II	*I"Superius I
*I'B	*I'T	*I'A	*I'S. II	*I'S. I
*clefF4	*clefGv2	*clefGv2	*clefG2	*clefG2
*k[b-]	*k[b-]	*k[b-]	*k[b-]	*k[b-]
*F:	*F:	*F:	*F:	*F:
*M2/1	*M2/1	*M2/1	*M2/1	*M2/1
*met(C|)	*met(C|)	*met(C|)	*met(C|)	*met(C|)
!!section: Prima pars: Alma redemptoris mater
!!!OMD: Prima pars: Alma redemptoris mater
=1	=1	=1	=1	=1
!	!	!	!	!LO:TX:a:t=Canon&colon; superius I/altus at the octave
0r	1F	0r	0r	0r
.	1A	.	.	.
=2	=2	=2	=2	=2
0r	1B-y	0r	0r	0r
.	1c	.	.	.
=3	=3	=3	=3	=3
1F	2r	0r	0r	0r
.	2.c	.	.	.
1A	.	.	.	.
.	4d	.	.	.
.	4e	.	.	.
.	4c	.	.	.
=4	=4	=4	=4	=4
1B-y	4d	0r	1f	0r
.	4e	.	.	.
.	4f	.	.	.
.	4d	.	.	.
2c	2e	.	1a	.
[2d	[2f	.	.	.
=5	=5	=5	=5	=5
2d]	2f]	0r	1b-y	0r
4c	4e	.	.	.
4B-y	4d	.	.	.
2A	1e	.	[1cc	.
[2c	.	.	.	.
=6	=6	=6	=6	=6
4c]	2r	0r	2cc]	0r
4F	.	.	.	.
2A	2c	.	4b-y	.
.	.	.	4a	.
1G	2d	.	2.b-y	.
.	2e	.	.	.
.	.	.	4cc	.
=7	=7	=7	=7	=7
0F	1.f	0r	2a	1f
.	.	.	1cc	.
.	.	.	.	1a
.	2e	.	4b-y	.
.	.	.	4a	.
=8	=8	=8	=8	=8
1G	1d	0r	2.g	1b-y
.	.	.	4f	.
[1A	1c	.	4e	1cc
.	.	.	4c	.
.	.	.	[2f	.
=9	=9	=9	=9	=9
2A]	2r	1F	2f]	2r
1F	2c	.	4e	2.cc
.	.	.	4d	.
.	1c	1A	1c	.
.	.	.	.	4dd
2E	.	.	.	4ee
.	.	.	.	4cc
=10	=10	=10	=10	=10
1D	1F	1B-y	1r	4dd
.	.	.	.	4ee
.	.	.	.	1ff
1C	1G	1c	2r	.
.	.	.	[2cc	2ee
=11	=11	=11	=11	=11
0r	2.F	2r	4cc]	1.ff
.	.	.	4b-y	.
.	.	2.c	1a	.
.	4G	.	.	.
.	4A	.	.	.
.	4B-y	4d	.	.
.	[2c	4e	2g	2ee
.	.	4c	.	.
=12	=12	=12	=12	=12
1r	2c]	4d	2a	1dd
.	.	4e	.	.
.	2B-y	1f	2b-y	.
1C	[1c	.	1g	[1cc
.	.	2e	.	.
=13	=13	=13	=13	=13
0F	1c]	1.f	0f	2cc]
.	.	.	.	2a
.	[1F	.	.	2.cc
.	.	2e	.	.
.	.	.	.	4dd
=14	=14	=14	=14	=14
1BB-y	2F]	1d	1r	1b-y
.	2G	.	.	.
1F	2A	[1c	1cc	1a
.	2F	.	.	.
=15	=15	=15	=15	=15
2E	2G	2c]	1cc	0r
2.F	2.A	2A	.	.
.	.	2.c	1f	.
4G	4F	.	.	.
2A	[2f	.	.	.
.	.	4d	.	.
=16	=16	=16	=16	=16
1G	2f]	1B-y	1g	0r
.	2e	.	.	.
1F	[1f	1A	[1a	.
=17	=17	=17	=17	=17
2r	1f]	0r	2a]	1cc
2F	.	.	4g	.
.	.	.	4f	.
2E	2r	.	2g	1cc
[2F	2F	.	[2a	.
=18	=18	=18	=18	=18
4F]	1A	0r	4a]	1f
4G	.	.	4g	.
2A	.	.	1f	.
1G	1B-y	.	.	1g
.	.	.	2e	.
=19	=19	=19	=19	=19
0F	1c	1c	2f	2.a
.	.	.	4cc	.
.	.	.	4b-y	4b-y
.	2r	1c	4a	4cc
.	.	.	4g	4b-y
.	2c	.	[2a	4cc
.	.	.	.	4a
=20	=20	=20	=20	=20
1D	1d	1F	2a]	2.b-y
.	.	.	4g	.
.	.	.	4f	4a
2r	1e	1G	2b-y	4g
.	.	.	.	4f
2C	.	.	[2cc	2g
=21	=21	=21	=21	=21
2F	1f	2.A	2cc]	1f
2D	.	.	2f	.
.	.	4B-y	.	.
1C	1r	4c	2g	2r
.	.	4B-y	.	.
.	.	4c	2e	2cc
.	.	4A	.	.
=22	=22	=22	=22	=22
1BB-y	2r	2.B-y	1d	1dd
.	2f	.	.	.
.	.	4A	.	.
1C	2e	4G	1c	1ee
.	.	4F	.	.
.	4d	2G	.	.
.	4c	.	.	.
=23	=23	=23	=23	=23
0F	4d	1F	2r	2ff
.	4c	.	.	.
.	1f	.	2b-y	2dd
.	.	2r	2a	2cc
.	2F	2c	[2f	4ff
.	.	.	.	4ee
=24	=24	=24	=24	=24
1BB-y	2.B-y	1d	2f]	4dd
.	.	.	.	4cc
.	.	.	1.g	2.dd
.	4A	.	.	.
1C	4G	1e	.	.
.	4F	.	.	4cc
.	2G	.	.	[2cc
=25	=25	=25	=25	=25
2r	2F	2f	2a	2cc]
2G	2B-y	2d	2g	2b-y
2A	2A	2c	2e	4cc
.	.	.	.	4b-y
2F	2c	4f	2a	4a
.	.	4e	.	4g
=26	=26	=26	=26	=26
2BB-y	1B-y	4d	2.b-y	2f
.	.	4c	.	.
1B-y	.	2.d	.	1b-y
.	.	.	4a	.
.	1r	.	4g	.
.	.	4c	4f	.
2F	.	[2c	[2f	[2a
=27	=27	=27	=27	=27
1G	1r	2c]	2f]	2a]
.	.	2B-y	2e	2g
[1F	2r	4c	2.f	1a
.	.	4B-y	.	.
.	2F	4A	.	.
.	.	4G	4g	.
=28	=28	=28	=28	=28
2F]	2c	2F	2a	2r
4E	2d	1B-y	2b-y	2f
4D	.	.	.	.
1C	2e	.	4cc	2g
.	.	.	4dd	.
.	2c	[2A	[2ee	2a
=29	=29	=29	=29	=29
1r	2f	2A]	4ee]	1b-y
.	.	.	4dd	.
.	2g	2G	1dd	.
2r	1e	1A	.	1a
2AA	.	.	2cc#i	.
=30	=30	=30	=30	=30
2BB-y	2d	2r	1dd	1r
2D	1f	2F	.	.
1C	.	2G	1r	1cc
.	2e	2A	.	.
=31	=31	=31	=31	=31
1BB-y	1d	1B-y	2r	2.f
.	.	.	2b-y	.
.	.	.	.	4g
[1F	1c	1A	2cc	2a
.	.	.	[2a	2f
=32	=32	=32	=32	=32
2F]	2r	1r	2a]	2a
2BB-y	1f	.	1dd	2b-y
1C	.	1c	.	1g
.	2e	.	[2cc	.
=33	=33	=33	=33	=33
1D	2f	2.F	2cc]	1f
.	2d	.	2b-y	.
.	.	4G	.	.
2C	2e	2A	2cc	1r
[2D	2f	2F	[2a	.
=34	=34	=34	=34	=34
2D]	1d	2A	4a]	0r
.	.	.	8gL	.
.	.	.	8fJ	.
2BB-y	.	2B-y	4g	.
.	.	.	2f	.
1C	2c	1G	.	.
.	.	.	8eL	.
.	.	.	8dJ	.
.	2g	.	2e	.
=35	=35	=35	=35	=35
2r	2.a	1F	2f	1r
2F	.	.	2cc	.
.	4g	.	.	.
1F	2f	1r	2.cc	1ff
.	4e	.	.	.
.	4d	.	4b-y	.
=36	=36	=36	=36	=36
2F	1c	0r	2a	2.ff
2C	.	.	2.g	.
.	.	.	.	4ee
2G	2B-y	.	.	2dd
.	.	.	4f	.
2A	2c	.	4f	[2cc
.	.	.	4e	.
=37	=37	=37	=37	=37
1G	1d	1r	1g	4cc]
.	.	.	.	4bni
.	.	.	.	4bni
.	.	.	.	4a
2F	1r	1f	2a	2cc
[2B-y	.	.	[2b-y	[2dd
=38	=38	=38	=38	=38
2B-]	0r	2.f	2b-]	2dd]
2F	.	.	2a	2cc
.	.	4e	.	.
2B-y	.	2d	2g	2b-y
2F	.	[2c	[2f	[2a
=39	=39	=39	=39	=39
1G	1r	4c]	2f]	2a]
.	.	4B-y	.	.
.	.	4B-y	2e	2g
.	.	4A	.	.
[1F	[1A	2c	1f	[1a
.	.	[2d	.	.
=40	=40	=40	=40	=40
2F]	2A]	2d]	1r	1a]
2E	2G	2c	.	.
2D	2F	2B-y	2r	1r
2C	2E	[2A	2cc	.
=41	=41	=41	=41	=41
1BB-y	1D	2A]	1dd	0r
.	.	2G	.	.
1AA	2E	[1A	1cc	.
.	[2F	.	.	.
=42	=42	=42	=42	=42
0r	4F]	1A]	2r	1f
.	4G	.	.	.
.	2A	.	2c	.
.	2B-y	1r	2d	1g
.	[2c	.	[2e	.
=43	=43	=43	=43	=43
0r	2c]	0r	4e]	1a
.	.	.	4c	.
.	2.d	.	2.f	.
.	.	.	.	2.a
.	4c	.	4e	.
.	[2f	.	2a	.
.	.	.	.	4b-y
=44	=44	=44	=44	=44
0r	2f]	1F	2f	4cc
.	.	.	.	4dd
.	2e	.	2a	1cc
.	1d	1G	1g	.
.	.	.	.	2bni
=45	=45	=45	=45	=45
0F	2r	1A	0f	1cc
.	2c	.	.	.
.	2d	2.A	.	2r
.	[2c	.	.	[2cc
.	.	4B-y	.	.
=46	=46	=46	=46	=46
1F	4c]	4c	0r	4cc]
.	4F	4d	.	4b-y
.	1f	1c	.	2a
1G	.	.	.	2g
.	2e	2B-y	.	2b-y
=47	=47	=47	=47	=47
1F	2f	1c	1.cc	2a
.	2a	.	.	4g
.	.	.	.	4f
1C	2g	2r	.	4e
.	.	.	.	4f
.	2e	[2c	2cc	[2g
=48	=48	=48	=48	=48
1F	1f	4c]	1cc	4g]
.	.	4B-y	.	4f
.	.	2A	.	1f
1G	1r	2G	2b-y	.
.	.	2B-y	2g	2e
=49	=49	=49	=49	=49
1F	1.c	2A	2a	1f
.	.	4G	1cc	.
.	.	4F	.	.
2C	.	4E	.	[1cc
.	.	4F	.	.
2E	2c	[2G	2b-y	.
=50	=50	=50	=50	=50
1F	1c	4G]	2.a	2cc]
.	.	4F	.	.
.	.	1F	.	2cc
.	.	.	8gL	.
.	.	.	8fJ	.
1C	1r	.	1g	1cc
.	.	2E	.	.
=51	=51	=51	=51	=51
1r	1.A	1F	0f	0r
[1F	.	[1c	.	.
.	2A	.	.	.
=52	=52	=52	=52	=52
2F]	2A	2c]	1.f	2r
2F	4F	2c	.	1cc
.	4G	.	.	.
1F	4A	1c	.	.
.	4B-y	.	.	.
.	2c	.	2f	4b-y
.	.	.	.	4a
=53	=53	=53	=53	=53
1BB-y	2.d	0r	[0f	1b-y
.	4c	.	.	.
2r	2A	.	.	1cc
2F	2c	.	.	.
=54	=54	=54	=54	=54
2BB-y	2B-y	2r	0f]	2dd
2.F	2A	1c	.	2cc
.	2F	.	.	2a
4G	.	.	.	.
2A	[2f	4B-y	.	2cc
.	.	4A	.	.
=55	=55	=55	=55	=55
1G	2f]	1B-y	0r	1b-y
.	2e	.	.	.
[1F	[1f	1c	.	1a
=56	=56	=56	=56	=56
0F]	2f]	2d	1.f	1.ff
.	2e	2c	.	.
.	2d	2A	.	.
.	2c	2c	2f	2ee
=57	=57	=57	=57	=57
1BB-y	2.d	1B-y	0f	1dd
.	4e	.	.	.
[1F	2f	1A	.	2cc
.	[2F	.	.	[2ff
=58	=58	=58	=58	=58
1F]	4F]	1.f	0r	4ff]
.	4G	.	.	4ee
.	2A	.	.	2dd
2r	2G	.	.	2cc
2C	2c	2e	.	[2gg
=59	=59	=59	=59	=59
2D	2A	1d	0r	2gg]
2BB-y	2B-y	.	.	2ff
2C	2G	2c	.	2ee
[2D	2F	[2f	.	2ff
=60	=60	=60	=60	=60
2D]	2A	4f]	1r	2dd
.	.	4e	.	.
2BB-y	2B-y	2d	.	1ff
2C	1G	2c	2r	.
2E	.	[2g	2g	2ee
=61	=61	=61	=61	=61
2F	2r	2g]	2a	2cc
2BB-y	2F	2f	2b-y	2.dd
2C	2c	2e	2g	.
.	.	.	.	4cc
2F	2A	2f	2a	[2cc
=62	=62	=62	=62	=62
2BB-y	2B-y	2d	2.f	2cc]
2B-y	2d	1f	.	2b-y
.	.	.	4g	.
2A	2.c	.	2a	1cc
[2c	.	2e	[2g	.
.	4B-y	.	.	.
=63	=63	=63	=63	=63
2c]	2A	2c	2g]	0r
2B-y	2G	2.d	2d	.
1A	1c	.	2e	.
.	.	4c	.	.
.	.	[2c	2f	.
=64	=64	=64	=64	=64
1G	1d	2c]	1g	1r
.	.	2Bni	.	.
1C	2r	1c	2r	2r
.	2c	.	2g	2cc
=65	=65	=65	=65	=65
0r	2.f	0r	2.a	1cc
.	4e	.	4g	.
.	2d	.	2f	2b-y
.	2c	.	2e	[2a
=66	=66	=66	=66	=66
1r	1B-y	1r	1d	4a]
.	.	.	.	4g
.	.	.	.	4g
.	.	.	.	4f
1F	1A	2r	1c	1a
.	.	2c	.	.
=67	=67	=67	=67	=67
2.F	2.A	1c	2r	0r
.	.	.	2A	.
4E	4G	.	.	.
2D	2F	2B-y	2B-y	.
2C	[2E	[2A	2c	.
=68	=68	=68	=68	=68
1BB-y	2E]	4A]	1d	0r
.	.	4G	.	.
.	2D	4G	.	.
.	.	4F	.	.
1AA	2E	1A	2c	.
.	2F	.	[2f	.
=69	=69	=69	=69	=69
0r	1G	0r	2f]	1b-y
.	.	.	2e	.
.	4F	.	2f	2a
.	4G	.	.	.
.	4A	.	4c	[2cc
.	4B-y	.	4d	.
=70	=70	=70	=70	=70
1r	2c	0r	4e	2cc]
.	.	.	4c	.
.	2d	.	2.f	4b-y
.	.	.	.	4a
2r	2B-y	.	.	1g
.	.	.	4d	.
2C	2c	.	2e	.
=71	=71	=71	=71	=71
2.D	1F	1B-y	2f	1f
.	.	.	2d	.
4E	.	.	.	.
4F	1r	2A	1c	1r
4G	.	.	.	.
[2A	.	[2c	.	.
=72	=72	=72	=72	=72
2A]	1r	2c]	2r	1f
4G	.	4B-y	2c	.
4F	.	4A	.	.
2E	2r	1G	4c	1g
.	.	.	4d	.
2C	2c	.	2e	.
=73	=73	=73	=73	=73
2F	2A	1F	1f	1a
2D	2F	.	.	.
2C	2c	1r	2e	1a
2F	4d	.	[2a	.
.	4c	.	.	.
=74	=74	=74	=74	=74
2D	2d	1F	2a]	1a
2F	1c	.	4g	.
.	.	.	4f	.
2C	.	1G	2e	2g
2G	2B-y	.	4d	2b-y
.	.	.	4e	.
=75	=75	=75	=75	=75
2F	2c	1A	4f	2a
.	.	.	4g	.
2D	2d	.	4a	4g
.	.	.	4b-y	4f
2C	2e	1A	2cc	2e
2F	2c	.	[2a	[2f
=76	=76	=76	=76	=76
2D	2d	1A	2a]	4f]
.	.	.	.	4g
2F	4c	.	4g	4a
.	4d	.	4f	4b-y
2C	2e	2G	2e	2cc
4BB-y	2f	2B-y	2d	2f
4C	.	.	.	.
=77	=77	=77	=77	=77
4D	4F	2A	2dd	2r
4E	4G	.	.	.
2F	4A	4G	2.cc	2a
.	4B-y	4F	.	.
2C	[1c	2E	.	2g
.	.	.	4b-y	.
[2F	.	[2F	[2a	4f
.	.	.	.	4g
=78	=78	=78	=78	=78
2F]	2c]	4F]	2a]	4a
.	.	4G	.	4b-y
4E	2F	4A	4g	2.cc
4D	.	4B-y	4f	.
2C	2G	[1cl	2e	.
.	.	.	.	4b-y
[2F	2A	.	[2f	[2a
=79	=79	=79	=79	=79
2F]	1F	0c_	4f]	2a]
.	.	.	4g	.
4E	.	.	4a	4g
4D	.	.	4b-y	4f
1C	1G	.	[1cc	4e
.	.	.	.	4f
.	.	.	.	4g
.	.	.	.	4e
=80	=80	=80	=80	=80
[0Fl	[0Fl	0c_	2cc]	[0fl
.	.	.	4b-y	.
.	.	.	4a	.
.	.	.	[1al	.
=	=	=	=	=
00F]	00F]	00c]	00a]	00f]
=||	=||	=||	=||	=||
*M2/1	*M2/1	*M2/1	*M2/1	*M2/1
*met(C|)	*met(C|)	*met(C|)	*met(C|)	*met(C|)
!!section: Secunda pars: Virgo prius
!!!OMD: Secunda pars: Virgo prius
!	!	!	!	!LO:TX:a:t=Canon&colon; Superius I/altus at the octave
0r	0r	0r	0cc	0r
=81	=81	=81	=81	=81
0r	0r	0r	1a	0r
.	.	.	2g	.
.	.	.	[2cc	.
=82	=82	=82	=82	=82
0r	0f	0r	2cc]	0r
.	.	.	4b-y	.
.	.	.	4a	.
.	.	.	2dd	.
.	.	.	[2cc	.
=83	=83	=83	=83	=83
0r	1d	0r	2cc]	0r
.	.	.	2b-y	.
.	2c	.	2.cc	.
.	[2f	.	.	.
.	.	.	4b-y	.
=84	=84	=84	=84	=84
0F	4f]	0r	4a	0r
.	4e	.	4g	.
.	1d	.	2a	.
.	.	.	2f	.
.	[2c	.	[2a	.
=85	=85	=85	=85	=85
1D	2c]	0r	2a]	0r
.	2B-y	.	4g	.
.	.	.	4f	.
2C	1c	.	2e	.
[2F	.	.	2f	.
=86	=86	=86	=86	=86
4F]	1A	0r	2c	0ff
4E	.	.	.	.
4D	.	.	1f	.
4C	.	.	.	.
[1BB-y	2.B-y	.	.	.
.	.	.	4g	.
.	4c	.	4a	.
=87	=87	=87	=87	=87
1BB-]	4d	0r	1b-y	1dd
.	4e	.	.	.
.	1f	.	.	.
[1F	.	.	[1a	1cc
.	4e	.	.	.
.	4d	.	.	.
=88	=88	=88	=88	=88
2F]	2c	0f	2a]	2.ff
2BB-y	2d	.	2f	.
.	.	.	.	4ee
1F	1A	.	1a	2dd
.	.	.	.	[2cc
=89	=89	=89	=89	=89
1G	1r	1d	1g	2cc]
.	.	.	.	2bni
1A	2r	1c	2r	1cc
.	2F	.	2c	.
=90	=90	=90	=90	=90
1.F	1.A	2.f	2.f	1r
.	.	4e	4g	.
.	.	2d	4a	1cc
.	.	.	4f	.
2E	2G	[2c	[2g	.
=91	=91	=91	=91	=91
1D	2A	2c]	4g]	2a
.	.	.	4f	.
.	2F	2Bni	1f	2b-y
1C	1G	1c	.	1g
.	.	.	2e	.
=92	=92	=92	=92	=92
1F	1A	1r	2f	1f
.	.	.	2.cc	.
2C	2G	1c	.	2r
.	.	.	4b-y	.
[2F	2A	.	[2a	2cc
=93	=93	=93	=93	=93
2F]	1F	2A	2a]	1dd
2E	.	2B-y	4g	.
.	.	.	4f	.
1C	1c	1G	2g	1ee
.	.	.	[2cc	.
=94	=94	=94	=94	=94
2r	1A	1F	4cc]	2.ff
.	.	.	4b-y	.
2.F	.	.	1a	.
.	.	.	.	4ee
.	1F	2r	.	4dd
4G	.	.	.	4cc
2A	.	2c	4g	[2cc
.	.	.	4f	.
=95	=95	=95	=95	=95
1G	2r	1d	0g	2cc]
.	2B-y	.	.	2bni
1C	2G	1e	.	[1cc
.	[2c	.	.	.
=96	=96	=96	=96	=96
1.F	4c]	2.f	2r	1cc]
.	4B-y	.	.	.
.	1A	.	2c	.
.	.	4e	.	.
.	.	4d	2d	1r
.	.	4c	.	.
2E	[2G	[2c	2e	.
=97	=97	=97	=97	=97
1D	2G]	2c]	1f	0r
.	2F	2Bni	.	.
1C	1G	[1c	1e	.
=98	=98	=98	=98	=98
2r	2.F	1c]	0a	1cc
2.F	.	.	.	.
.	4G	.	.	.
.	4A	1r	.	[1cc
4G	4B-y	.	.	.
4A	4c	.	.	.
4B-y	4d	.	.	.
=99	=99	=99	=99	=99
2c	4e	0r	2g	1cc]
.	4c	.	.	.
2A	1f	.	2f	.
1G	.	.	1g	1b-y
.	2e	.	.	.
=100	=100	=100	=100	=100
0F	0f	1c	1c	2a
.	.	.	.	1cc
.	.	[1c	[1cc	.
.	.	.	.	4b-y
.	.	.	.	4a
=101	=101	=101	=101	=101
2r	1e	1c]	2cc]	2g
2C	.	.	2a	1a
2D	1d	1B-y	1b-y	.
2E	.	.	.	2g
=102	=102	=102	=102	=102
1F	2c	2A	2r	1a
.	2F	1c	2a	.
[1C	2G	.	1cc	1r
.	2A	4B-y	.	.
.	.	4A	.	.
=103	=103	=103	=103	=103
2C]	2E	2G	1cc	0r
2AA	2F	1A	.	.
1BB-y	1D	.	1dd	.
.	.	2G	.	.
=104	=104	=104	=104	=104
1AA	2E	1A	2cc	1r
.	2.F	.	1a	.
1r	.	1r	.	[1cc
.	4G	.	.	.
.	4A	.	4g	.
.	4B-y	.	4f	.
=105	=105	=105	=105	=105
0r	2c	0r	2e	1cc]
.	2.F	.	2f	.
.	.	.	2c	1a
.	4G	.	.	.
.	4A	.	[2cc	.
.	4B-y	.	.	.
=106	=106	=106	=106	=106
0r	2c	1r	4cc]	2g
.	.	.	4b-y	.
.	2.F	.	4a	1cc
.	.	.	4g	.
.	.	[1c	2f	.
.	4G	.	.	.
.	4A	.	[2ff	4b-y
.	4B-y	.	.	4a
=107	=107	=107	=107	=107
1C	4c	1c]	2ff]	1g
.	4d	.	.	.
.	4e	.	2ee	.
.	4c	.	.	.
1F	2d	1A	1ff	1f
.	[2c	.	.	.
=108	=108	=108	=108	=108
2E	4c]	2G	1r	1r
.	4B-y	.	.	.
1.F	4A	1c	.	.
.	4G	.	.	.
.	2F	.	1cc	1f
.	[2f	4B-y	.	.
.	.	4A	.	.
=109	=109	=109	=109	=109
1C	2f]	1G	1.cc	1g
.	2e	.	.	.
2r	1f	1F	.	1a
2F	.	.	4b-y	.
.	.	.	4a	.
=110	=110	=110	=110	=110
2.G	0r	1r	2g	1.b-y
.	.	.	2.e	.
4F	.	.	.	.
2D	.	1F	.	.
.	.	.	4d	.
2F	.	.	[2d	2a
=111	=111	=111	=111	=111
1E	1r	1G	2d]	1g
.	.	.	2c#i	.
1D	2r	1A	[1d	1f
.	2d	.	.	.
=112	=112	=112	=112	=112
2r	4G	1.B-y	1d]	2.g
.	4A	.	.	.
1G	4B-y	.	.	.
.	4c	.	.	4a
.	4d	.	1r	2b-y
.	4e	.	.	.
2F	2f	2A	.	[2cc
=113	=113	=113	=113	=113
1E	2g	1G	0r	2cc]
.	2c	.	.	2g
1D	1d	1F	.	2a
.	.	.	.	[2b-y
=114	=114	=114	=114	=114
2E	2r	2.G	1r	2b-]
2C	2c	.	.	2cc
.	.	4A	.	.
2G	2B-y	2B-y	2r	2dd
[2F	2A	[2c	[2f	[2a
=115	=115	=115	=115	=115
2F]	2c	2c]	2f]	2a]
2G	2B-y	2G	2d	2b-y
2F	2A	2A	[1f	2cc
[2BB-y	[2F	[2B-y	.	[2dd
=116	=116	=116	=116	=116
2BB-]	4F]	2B-]	1f]	2dd]
.	4G	.	.	.
2F	2A	2c	.	2cc
2BB-y	2B-y	2d	[1f	2b-y
[2F	2c	[2A	.	[2a
=117	=117	=117	=117	=117
2F]	2d	2A]	2f]	2a]
2G	2B-y	2B-y	2d	2g
2F	1A	2c	[1f	1a
[2D	.	[2d	.	.
=118	=118	=118	=118	=118
2D]	2r	2d]	2f]	0r
2F	2f	2c	2a	.
2G	2e	2B-y	2g	.
2D	[2d	[2A	2f	.
=119	=119	=119	=119	=119
1E	2d]	2A]	1g	0r
.	2c	2G	.	.
2D	2d	1A	1f	.
[2F	2c	.	.	.
=120	=120	=120	=120	=120
2F]	2d	0r	1r	0r
4E	1f	.	.	.
4D	.	.	.	.
1C	.	.	1cc	.
.	2e	.	.	.
=121	=121	=121	=121	=121
1r	1d	0r	1b-y	0r
1c	1c	.	1cc	.
=122	=122	=122	=122	=122
1B-y	1r	0r	2f	0r
.	.	.	1ff	.
1c	1g	.	.	.
.	.	.	2ee	.
=123	=123	=123	=123	=123
2F	1f	0r	2ff	1cc
2A	.	.	2cc	.
2.G	1g	.	2ee	1b-y
.	.	.	[2dd	.
4F	.	.	.	.
=124	=124	=124	=124	=124
2E	2c	0r	2dd]	1cc
2F	1c	.	2cc	.
1D	.	.	1dd	1f
.	2B-y	.	.	.
=125	=125	=125	=125	=125
2.C	2c	1c	1g	2r
.	1e	.	.	2.g
4D	.	.	.	.
4E	.	1B-y	2r	.
4F	.	.	.	4a
2G	2d	.	2g	2b-y
=126	=126	=126	=126	=126
2F	2f	1c	2.cc	2a
2.c	2e	.	.	2g
.	.	.	4b-y	.
.	[1f	1F	4a	2.cc
4B-y	.	.	4g	.
4A	.	.	[2cc	.
4G	.	.	.	4b-y
=127	=127	=127	=127	=127
2F	2f]	2r	2cc]	2a
2G	2d	2.G	1b-y	2b-y
2E	2e	.	.	1g
.	.	4A	.	.
2G	[2d	2B-y	2g	.
=128	=128	=128	=128	=128
2D	2d]	2A	2a	2f
2G	2d	2G	2b-y	2b-y
2F	2f	2.c	1cc	2a
2C	2e	.	.	[2g
.	.	4B-y	.	.
=129	=129	=129	=129	=129
2D	1d	2A	1f	4g]
.	.	.	.	4f
2BB-y	.	2B-y	.	1f
1C	1c	1G	2r	.
.	.	.	[2cc	2e
=130	=130	=130	=130	=130
[0Fl	[0cl	[0Fl	4cc]	[0fl
.	.	.	4b-y	.
.	.	.	4a	.
.	.	.	4g	.
.	.	.	2a	.
.	.	.	2f	.
=131	=131	=131	=131	=131
00F]	00c]	00F]	00ccl	00f]
==	==	==	==	==
*-	*-	*-	*-	*-
!!!system-decoration: [*]
!!!RDF**kern: i = editorial accidental
!!!RDF**kern: l = terminal long
!!!ENC: Benjamin Ory
!!!END: 2021/9/10
!!!EED: Benjamin Ory
!!!EEV: 2021/09/10
!!!YEC: Copyright 2021 Benjamin Ory, All Rights Reserved
!!!ONB: Translated from MusicXML on 2021/09/10
